src/images/Icons/02_chair.svg

<?xml version="1.0" encoding="UTF-8"?>
<svg width="16px" height="23px" viewBox="0 0 16 23" version="1.1" xmlns="http://www.w3.org/2000/svg" xmlns:xlink="http://www.w3.org/1999/xlink">
    <!-- Generator: Sketch 51.3 (57544) - http://www.bohemiancoding.com/sketch -->
    <title>Group 6</title>
    <desc>Created with Sketch.</desc>
    <defs>
        <polygon id="path-1" points="0 0.0306122449 15.8982857 0.0306122449 15.8982857 22.0407347 0 22.0407347"></polygon>
    </defs>
    <g id="Welcome" stroke="none" stroke-width="1" fill="none" fill-rule="evenodd">
        <g id="CLanding" transform="translate(-812.000000, -1814.000000)">
            <g id="Rooms" transform="translate(0.000000, 1411.000000)">
                <g id="Group-15" transform="translate(810.000000, 204.000000)">
                    <g id="Group-12" transform="translate(0.000000, 76.000000)">
                        <g id="Group-14">
                            <g id="Group-6" transform="translate(2.000000, 123.535678)">
                                <path d="M12.7045551,17.7878531 L12.7045551,12.3318531 L4.16284082,12.3318531 C4.12741224,13.0454857 4.06243265,13.7787102 3.96937143,14.5124245 C3.83206531,15.5948735 3.63288163,16.6965878 3.37688163,17.7878531 L12.7045551,17.7878531 Z M1.55386122,22.1156898 C1.46488163,22.1156898 1.37786122,22.0982204 1.29524898,22.0637714 C1.12888163,21.9947102 0.99957551,21.8649143 0.930840816,21.6983837 C0.862106122,21.5320163 0.862432653,21.3486694 0.931657143,21.1824653 C0.94357551,21.1534041 2.14014694,18.2528327 2.63582041,14.3104653 C3.0848,10.7378939 3.0212898,5.57511837 0.170187755,1.26752653 C-0.0350367347,0.95764898 0.0501877551,0.538546939 0.360065306,0.333322449 C0.470922449,0.260016327 0.599412245,0.221159184 0.731820408,0.221159184 C0.959085714,0.221159184 1.16937143,0.334138776 1.29443265,0.523363265 C2.66161633,2.58834286 3.55663673,4.99405714 3.95467755,7.67324082 C4.11157551,8.72956735 4.19239184,9.84287347 4.19500408,10.9832816 L15.1662694,10.9832816 C15.5380245,10.9832816 15.8405551,11.2858122 15.8405551,11.6575673 C15.8405551,12.0293224 15.5380245,12.3318531 15.1662694,12.3318531 L14.0529633,12.3318531 L14.0529633,17.7878531 L14.3043918,17.7878531 C14.6761469,17.7878531 14.9785143,18.0903837 14.9785143,18.4621388 C14.9785143,18.8338939 14.6761469,19.1364245 14.3043918,19.1364245 L14.0529633,19.1364245 L14.0529633,21.4412408 C14.0529633,21.8129959 13.7505959,22.1155265 13.3786776,22.1155265 C13.0070857,22.1155265 12.7045551,21.8129959 12.7045551,21.4412408 L12.7045551,19.1364245 L3.03010612,19.1364245 C2.5930449,20.6947918 2.19353469,21.6596898 2.17671837,21.7003429 C2.07173878,21.9525878 1.82716735,22.1156898 1.55386122,22.1156898 Z" id="Fill-1" fill="#000000"></path>
                                <g id="Group-5" transform="translate(0.000000, 0.132735)">
                                    <mask id="mask-2" fill="white">
                                        <use xlink:href="#path-1"></use>
                                    </mask>
                                    <g id="Clip-4"></g>
                                    <path d="M4.21786122,12.256898 L12.6467592,12.256898 L12.6467592,17.5973061 L3.44969796,17.5973061 C3.69818776,16.5277551 3.89214694,15.4484082 4.02684082,14.3868571 C4.11761633,13.6702857 4.18194286,12.9543673 4.21786122,12.256898 M0.731657143,0.0306122449 C0.587983673,0.0306122449 0.448555102,0.0725714286 0.328228571,0.152244898 C0.165126531,0.260163265 0.0539428571,0.425061224 0.014922449,0.616734694 C-0.0240979592,0.808408163 0.0139428571,1.00367347 0.121861224,1.16677551 C2.96333061,5.4595102 3.02602449,10.6075918 2.57835102,14.1705306 C2.08659592,18.0835102 0.890187755,20.998449 0.878106122,21.0275102 C0.803167347,21.2079184 0.802840816,21.4069388 0.877453061,21.5876735 C0.951902041,21.7685714 1.09247347,21.9094694 1.2730449,21.9845714 C1.36284082,22.0217959 1.45737143,22.0407347 1.55386122,22.0407347 C1.85067755,22.0407347 2.11614694,21.8637551 2.23010612,21.5897959 C2.24692245,21.5491429 2.64202449,20.593551 3.07386122,19.0614694 L12.6467592,19.0614694 L12.6467592,21.3086531 C12.6467592,21.7122449 12.9750857,22.0407347 13.3788408,22.0407347 C13.7824327,22.0407347 14.1109224,21.7122449 14.1109224,21.3086531 L14.1109224,19.0614694 L14.3043918,19.0614694 C14.7079837,19.0614694 15.0364735,18.7331429 15.0364735,18.3293878 C15.0364735,17.9257959 14.7079837,17.5973061 14.3043918,17.5973061 L14.1109224,17.5973061 L14.1109224,12.256898 L15.1662694,12.256898 C15.5698612,12.256898 15.898351,11.9284082 15.898351,11.5248163 C15.898351,11.1212245 15.5698612,10.7927347 15.1662694,10.7927347 L4.25263673,10.7927347 C4.24757551,9.66979592 4.16659592,8.57330612 4.01182041,7.53183673 C3.61247347,4.84432653 2.71451429,2.43093878 1.34275918,0.358612245 C1.20675918,0.15322449 0.97835102,0.0306122449 0.731657143,0.0306122449 M3.30373878,17.7130612 L12.762351,17.7130612 L12.762351,12.1411429 L4.10782041,12.1411429 C4.0730449,12.8725714 4.00773878,13.616898 3.91206531,14.3723265 C3.75582041,15.6035102 3.53606531,16.7326531 3.30373878,17.7130612 M0.731657143,0.146204082 C0.931657143,0.146204082 1.12773878,0.243346939 1.24626939,0.42244898 C2.60871837,2.48057143 3.50063673,4.87828571 3.89737143,7.54881633 C4.05737143,8.62620408 4.13720816,9.74881633 4.13720816,10.9084898 L15.1662694,10.9084898 C15.5066776,10.9084898 15.7825959,11.1844082 15.7825959,11.5248163 C15.7825959,11.8652245 15.5066776,12.1411429 15.1662694,12.1411429 L13.9951673,12.1411429 L13.9951673,17.7130612 L14.3043918,17.7130612 C14.6448,17.7130612 14.9207184,17.9889796 14.9207184,18.3293878 C14.9207184,18.6697959 14.6448,18.9458776 14.3043918,18.9458776 L13.9951673,18.9458776 L13.9951673,21.3086531 C13.9951673,21.6490612 13.719249,21.9249796 13.3788408,21.9249796 C13.0384327,21.9249796 12.762351,21.6490612 12.762351,21.3086531 L12.762351,18.9458776 L2.98618776,18.9458776 C2.55075918,20.5070204 2.15222857,21.4755102 2.12316735,21.5452245 C2.02471837,21.7822857 1.79549388,21.9251429 1.55386122,21.9251429 C1.47500408,21.9251429 1.39484082,21.9097959 1.31745306,21.8776327 C1.00316735,21.7470204 0.854269388,21.3862041 0.985044898,21.0719184 C0.996963265,21.0430204 2.19941224,18.112898 2.69312653,14.184898 C3.14341224,10.6026939 3.07941224,5.42522449 0.21835102,1.10293878 C0.0304326531,0.819020408 0.108146939,0.436653061 0.392065306,0.248734694 C0.496718367,0.179346939 0.614922449,0.146204082 0.731657143,0.146204082" id="Fill-3" fill="#000000" mask="url(#mask-2)"></path>
                                </g>
                            </g>
                        </g>
                    </g>
                </g>
            </g>
        </g>
    </g>
</svg>

<svg width="16" height="23" viewBox="0 0 16 23" xmlns="http://www.w3.org/2000/svg" xmlns:xlink="http://www.w3.org/1999/xlink"><defs><path id="a" d="M0 .03h15.898v22.01H0z"/></defs><g fill="none" fill-rule="evenodd"><path d="M12.705 18.324v-5.456H4.163c-.036.713-.1 1.446-.194 2.18a32.07 32.07 0 01-.592 3.276h9.328zM1.554 22.65a.67.67 0 01-.623-.417.669.669 0 010-.516c.013-.029 1.21-2.93 1.705-6.872.449-3.572.385-8.735-2.466-13.043a.675.675 0 011.124-.744c1.368 2.065 2.263 4.47 2.66 7.15.158 1.056.238 2.17.241 3.31h10.971a.675.675 0 010 1.349h-1.113v5.456h.251a.675.675 0 010 1.348h-.251v2.305a.675.675 0 01-1.348 0v-2.305H3.03c-.437 1.558-.836 2.523-.853 2.564a.673.673 0 01-.623.415z" fill="#000"/><g transform="translate(0 .668)"><mask id="b" fill="#fff"><use xlink:href="#a"/></mask><path d="M4.218 12.257h8.429v5.34H3.45c.248-1.07.442-2.149.577-3.21.09-.717.155-1.433.19-2.13M.733.03a.728.728 0 00-.717.586.727.727 0 00.107.55c2.841 4.293 2.904 9.44 2.456 13.004-.491 3.913-1.688 6.827-1.7 6.857a.727.727 0 000 .56.727.727 0 00.676.453.73.73 0 00.676-.451c.017-.04.412-.996.844-2.529h9.573v2.248a.733.733 0 001.464 0V19.06h.193a.733.733 0 000-1.464h-.193v-5.34h1.055a.733.733 0 000-1.464H4.253a22.97 22.97 0 00-.241-3.261c-.4-2.688-1.297-5.101-2.67-7.173A.731.731 0 00.733.03m2.572 17.682h9.458V12.14H4.108a28.56 28.56 0 01-.196 2.231 32.027 32.027 0 01-.608 3.341M.732.146c.2 0 .396.097.514.276C2.61 2.481 3.501 4.878 3.897 7.55c.16 1.077.24 2.2.24 3.36h11.03a.616.616 0 110 1.232h-1.172v5.572h.31a.616.616 0 110 1.233h-.31v2.363a.616.616 0 11-1.233 0v-2.363H2.986c-.435 1.561-.834 2.53-.863 2.6a.616.616 0 11-1.138-.474c.012-.029 1.214-2.96 1.708-6.887.45-3.582.386-8.76-2.475-13.082A.616.616 0 01.732.146" fill="#000" mask="url(#b)"/></g></g></svg>
